X: 1352
T: Mektebin Bacaları
C: Muazzez Turing
O: Turkey
F: http://compmusic.upf.edu/node/140
N: hicaz--turku--sofyan--mektebin_bacalari--mus
N: makam= hicaz
N: form= turku
N: usul= sofyan = 4/4
M: 4/4
L: 1/16
K: C _7/8B ^f ^c 
Q: 1/4=81
%%MIDI tuningsystem comma53
d4 ^3/4c2d2 d4 d4  | ^3/4c4 ded2 {e}d6z2  | \
w:  ARANAĞME  |   | 
^3/4c4 d2d2 d2{e}dc cdcB  | 
w:   | 
B4 ^3/4c2c2 c2{d}cB BcBA  | A4 B^3/4cBA {B}A6z2  | \
w:   |   | 
^3/4c2d2 decd c2Bc B2A2  | 
w:   | 
^3/4ced4cd c2Bc B2A2  | B2^3/4c4Bc BABc B2A2  | \
w:   |   | 
AB^3/4cd cBAB A4 GABc  | 
w:   | 
d4 ^3/4c2d2 d4 d4  | ^3/4c4 ded2 {e}d6z2  | \
w:  ARANAĞME  |   | 
^3/4c4 d2d2 d2{e}dc cdcB  | 
w:   | 
B4 ^3/4c2c2 c2{d}cB BcBA  | A4 B^3/4cBA {B}A6z2  | \
w:   |   | 
^3/4c2d2 decd c2Bc B2A2  | 
w:   | 
^3/4ced4cd c2Bc B2A2  | B2^3/4c4Bc BABc B2A2  | \
w:   |   | 
AB^3/4cd cBAB A4 GABc  | 
w:   | 
d2z2 ^3/4c2d2 d4 d4  | ^3/4c4 ded2 {e}d6z2  | \
w:  *  Mek te bin  ba  |  ca la *  *  *  rı    | 
^3/4c4 d2d2 d2{e}dc cdcB  | 
w:  Vay  le  le  le  *  le  *  le  *  le    | 
{^3/4c}B4 c2c2 c2{d}cB BcBA  | A4 B2{^3/4c}BA {B}A6z2  | \
w:  *  Vay  le  le  le  *  le  *  le  *  le    |  Vay  le  *  le  *  *  vay    | 
^3/4c2de d2cd c2Bc B2A2  | 
w:  Ders  *  *  ve *  *  rir  *  *  ho  | 
^3/4ced4cd c2Bc B2A2  | B2^3/4c4Bc BABc B2A2  | \
w:  ca *  la *  *  rı    |  Uy_ am *  *  man   | 
AB^3/4cd cBAB A2z2 GABc  | 
w:  can  *  *  *  kur *  *  *  ban   SAZ  | 
d4 ^3/4c2d2 d4 d4  | ^3/4c4 ded2 {e}d6z2  | \
w:  ARANAĞME  |   | 
^3/4c4 d2d2 d2{e}dc cdcB  | 
w:   | 
B4 ^3/4c2c2 c2{d}cB BcBA  | A4 B^3/4cBA {B}A6z2  | \
w:   |   | 
^3/4c2d2 decd c2Bc B2A2  | 
w:   | 
^3/4ced4cd c2Bc B2A2  | B2^3/4c4Bc BABc B2A2  | \
w:   |   | 
AB^3/4cd cBAB A4 GABc  | 
w:   | 
d4 ^3/4c2d2 d4 d4  | ^3/4c4 ded2 {e}d6z2  | \
w:  ARANAĞME  |   | 
^3/4c4 d2d2 d2{e}dc cdcB  | 
w:   | 
B4 ^3/4c2c2 c2{d}cB BcBA  | A4 B^3/4cBA {B}A6z2  | \
w:   |   | 
^3/4c2d2 decd c2Bc B2A2  | 
w:   | 
^3/4ced4cd c2Bc B2A2  | B2^3/4c4Bc BABc B2A2  | \
w:   |   | 
AB^3/4cd cBAB A4 GABc  | 
w:   | 
d2z2 ^3/4c2d2 d4 d4  | ^3/4c4 ded2 {e}d6z2  | \
w:  *  Mek te bin  ba  |  ca la *  *  *  rı    | 
^3/4c4 d2d2 d2{e}dc cdcB  | 
w:  Vay  le  le  le  *  le  *  le  *  le    | 
{^3/4c}B4 c2c2 c2{d}cB BcBA  | A4 B2{^3/4c}BA {B}A6z2  | \
w:  *  Vay  le  le  le  *  le  *  le  *  le    |  Vay  le  *  le  *  *  vay    | 
^3/4c2de d2cd c2Bc B2A2  | 
w:  Ders  *  *  ve *  *  rir  *  *  ho  | 
^3/4ced4cd c2Bc B2A2  | B2^3/4c4Bc BABc B2A2  | \
w:  ca *  la *  *  rı    |  Uy_ am *  *  man   | 
AB^3/4cd cBAB A2z2 |
w:  can  *  *  *  kur *  *  *  ban    | 


